X: 3143
Q: "Strathspey."
M: C
L: 1/16
K: Am
|:\
vAA3c3d (ed)cB c4 | AA3c3d e3Ace3 |\
cg3 g3a g3c e4 |
cg3 g3a g3ceg3 |\
[2 cg3 g3a g3c e4 | GG3B3G d3GBd3 :|\
[2 a3fg3e f3de3c | d3Bc3A d3GBd3 |]


